X: 42
T:Farewell to the Creeks
M:6/8
L:1/8
C:P.M.  J. Robertson
R:March
K:A mix
a|"A"e2c c>Bc|"D"d>ef "A" e2d|"A"c>de A>ce|"A"e>dc "E"B2a|"A"e2c c>Bc|"D
"d>ef "A" e2d|!
"A"c>de e>dc|"E"B3 "A"A2:||:f|e>ce "D"f<ag|"D"f>df "A"e>cA|"A"c2 c c<ec|
"D"d>cd "E"B2f|!
e>ce "D"f<ag|"D"f>df "A"e>cA|"A"c>de e>dc|"E"B3 "A"A2:||:a|"A"c3 "D"d2f|
"A"c<ec c>BA|!
"D"d2f "A"c2e|"A"e>dc "E"B2a|"A"c3 "D"d2f|"A"c<ec c>BA|"A"c>de e>dc|"E"B
3 "A"A2:|!
|:e|"A"a2 e "D"f2a|"A"e2 f "A"e>cA|"D"d2f "A"c2e|"A"e>dc "E"B2 e|!
"A"a2 e "D"f2a|"A"e2 f "A"e>cA|"A"c>de e>dc|"E"B3 "A"A2:||
